X: 185
T: Down the River
T: Jig, G
L: 1/8
M: 6/8
K: G
|: B| dBG GBd| cA=F FAc| Bcd eag| fed cBA| dBG GBd| cA=F FAc| BdB cAF| AGG G2:| 
|: A| Ggf gba| gdc BAG| Ggf bag| fef g2B| G=fe dfd| cA=F FAc| =fed cA=F| AGG G2:| 
D: Jackie Dunn, Dunn to a "T", JAD-1
D: Brenda Stubbert, In Jig Time!, Celestial Entertainment 001
